resources/svg/compass.svg

<svg xmlns="http://www.w3.org/2000/svg" viewBox="0 0 24 24" fill="currentColor"><path fill="none" stroke="currentColor" stroke-width="2" d="M12,22 C17.5228475,22 22,17.5228475 22,12 C22,6.4771525 17.5228475,2 12,2 C6.4771525,2 2,6.4771525 2,12 C2,17.5228475 6.4771525,22 12,22 Z M10,10 L15,9 L14,14 L9,15 L10,10 Z M12,14 C13.1045695,14 14,13.1045695 14,12 C14,10.8954305 13.1045695,10 12,10 C10.8954305,10 10,10.8954305 10,12 C10,13.1045695 10.8954305,14 12,14 Z"/></svg>

<svg viewBox="0 0 24 24"><path fill="none" stroke="currentColor" stroke-width="2" d="M12 22c5.523 0 10-4.477 10-10S17.523 2 12 2S2 6.477 2 12s4.477 10 10 10zm-2-12l5-1l-1 5l-5 1l1-5zm2 4a2 2 0 1 0 0-4a2 2 0 0 0 0 4z"/></svg>
